X:3003
T:Christians, Awake, Salute the Happy Morn
R:March
C:J Wainwright, 1757
O:England
Z:Paul Hardy's Xmas Tunebook 2019 (see www.paulhardy.net). Creative Commons cc by-nc-sa licenced.
M:2/2
L:1/8
Q:1/4=180
K:C
"C"C4 C2 D2|"Am"E6 F2|"Em"G2 E2 F2 G2|"F"A8|"C"G4 A2 B2|"Am"c2 d2 e2 d2|"F"c4 "G"B4|"C"c8|
"C"c4 e2 G2|"Am"A6 G2|"F"A2 B2 c2 d2|"G"B8|"Em"B4 "Am"c2 B2|"E"A2 ^G2 A2 B2|"Am"c4 "E7"B4|"Am"A8|
"F"A4 G2 F2|"C"E4 C4|"F"F2 E2 D2 C2|"G"G6 G2|"Am"A4 "E"B4|"Am"c2 d2 e2 d2|"F"c4 "G"B4|"C"c8|]
W:Christians, awake, salute the happy morn
W:Whereon the Saviour of the world was born
W:Rise to adore the mystery of love
W:Which hosts of angels chanted from above
W:With them the joyful tidings first begun
W:Of God incarnate and the Virgin's Son
W:
W:(John Byron 1745)

